X:334
T:Hejdenbergs polska.
R:polska
S:Efter »Florsen» i Burs.
O:Gotland, Burs
M:3/4
L:1/16
K:G
B3d dBce dcBA|BGBd dgba gBdg|edcB cABc defg|d3c BGAB cdec|Bdef gBdg ecAc|
BdFA A4 G4::B3d dcBc dcBc|A3g g2fg agfg|eceg fdef gaba|gfef defg d4|
dcBc d3g agfg|edcB c3a agfg|ed^cd ed^cd fd^cd|ABAG FGFE DFAc|
B3d dBce dcBA|BGBd dgba gBdg|edcB cABc defg|d3c BGAB cdec|
Bdef gBdg ecAc|BdFA A4 G4:|

